X: 10
T: Advegne que venir pourra
N: Derived from Bus3002-Advegne_que_venir_pourra.krn
C: Antoine Busnoys
%%abc-version 2.0
%%abcx-abcm2ps-target-version 5.9.1 (29 Sep 2008)
%%abc-creator hum2abc beta
%%abcx-conversion-date 2019/02/16 20:26:06
%%abc-edited-by Jesse Rodin
%%abc-edited-by Chris Gage 04-02-2015
%%abcx-initial-encoding-date 2015/10/29/
%%humdrum-veritas 3535338703
%%humdrum-veritas-data 3718494644
%%linebreak <none>
%%barnumbers 0
L: 1/4
M: 2/1
Q: 1/2=120
V: 1 clef=treble
V: 2 clef=treble-8
V: 3 clef=bass
K: Bb
[V:1] G6F=E | 
[V:2] G8 | 
[V:3] G,,8 | 
[V:1] D2C2F4- | 
[V:2] B4A4 | 
[V:3] G,4F,4 | 
[V:1] F2=E2E2D2 | 
[V:2] G8 | 
[V:3] C,8 | 
[V:1] F4z4 | 
[V:2] F4B4- | 
[V:3] D,4B,,4- | 
[V:1] G4A4 | 
[V:2] B4c4 | 
[V:3] B,,4F,4 | 
[V:1] B4c4 | 
[V:2] d4c2e2- | 
[V:3] z2G,2C,4 | 
[V:1] B2B4A2 | 
[V:2] e2d2c4 | 
[V:3] G,4z2F,2 | 
[V:1] B6AG | 
[V:2] B4d4- | 
[V:3] G,6F,E, | 
[V:1] F2G2A4- | 
[V:2] d4c4- | 
[V:3] D,2E,2F,4- | 
[V:1] A2GF=E4 | 
[V:2] c2B2c4 | 
[V:3] F,2G,2A,4 | 
[V:1] D4G4- | 
[V:2] d4B4 | 
[V:3] F,4G,4 | 
[V:1] G4^F4 | 
[V:2] A8 | 
[V:3] D,8 | 
[V:1] G8 | 
[V:2] G8- | 
[V:3] G,,4C,4- | 
[V:1] z4G4 | 
[V:2] G8 | 
[V:3] C,2B,,A,,G,,4 | 
[V:1] G6F2 | 
[V:2] z4G4 | 
[V:3] G,4z4 | 
[V:1] =E4E4 | 
[V:2] G4G4 | 
[V:3] C,8 | 
[V:1] D8 | 
[V:2] B8 | 
[V:3] G,,8 | 
[V:1] D4G4 | 
[V:2] B6c2 | 
[V:3] G,6A,2 | 
[V:1] F4B4 | 
[V:2] d8 | 
[V:3] B,8 | 
[V:1] A2G2G4- | 
[V:2] c4B4 | 
[V:3] F,4G,4 | 
[V:1] G2^F2F2=E2 | 
[V:2] A8 | 
[V:3] D,8 | 
[V:1] G6F2 | 
[V:2] G4B4- | 
[V:3] G,,8 | 
[V:1] =E2D2F4- | 
[V:2] B4A4 | 
[V:3] C,4F,,4 | 
[V:1] F4=E4 | 
[V:2] G8 | 
[V:3] C,8 | 
[V:1] F8 | 
[V:2] F8- | 
[V:3] F,,8 | 
[V:1] z4A4 | 
[V:2] F8 | 
[V:3] F,4D,4- | 
[V:1] A8 | 
[V:2] z4F4 | 
[V:3] D,2C,2B,,2A,,2 | 
[V:1] B6AG | 
[V:2] G6F=E | 
[V:3] G,,8 | 
[V:1] F8 | 
[V:2] D8 | 
[V:3] z4D,4 | 
[V:1] B4A4 | 
[V:2] G4F4 | 
[V:3] G,,4D,4 | 
[V:1] G4F2=E2 | 
[V:2] B4c4 | 
[V:3] G,6F,=E, | 
[V:1] F4B4- | 
[V:2] d6cB | 
[V:3] D,8 | 
[V:1] B2A2A4- | 
[V:2] A4c4 | 
[V:3] z4F,4 | 
[V:1] A2G2G2F2 | 
[V:2] B8 | 
[V:3] G,6E,2 | 
[V:1] A6F2 | 
[V:2] A8 | 
[V:3] F,6D,2 | 
[V:1] F8 | 
[V:2] z4d4 | 
[V:3] D,8 | 
[V:1] z4D4 | 
[V:2] d8 | 
[V:3] z4B,,4 | 
[V:1] =E2F2G4- | 
[V:2] c4B4 | 
[V:3] A,,4G,,4 | 
[V:1] G2F2F4 | 
[V:2] A8 | 
[V:3] D,8 | 
[V:1] B4A2A2- | 
[V:2] G4c4- | 
[V:3] E,4F,4- | 
[V:1] A2GF=E4 | 
[V:2] c2B2c4 | 
[V:3] F,2G,2A,4 | 
[V:1] D2F4G2 | 
[V:2] d6=e2 | 
[V:3] B,6A,G, | 
[V:1] A3GF2=E2 | 
[V:2] f3=ed2c2 | 
[V:3] F,3C,D,2A,2 | 
[V:1] D2G4^F2 | 
[V:2] d2B2A4 | 
[V:3] F,2G,2D,4 | 
[V:1] G6F=E | 
[V:2] G4B4- | 
[V:3] G,,8 | 
[V:1] D2C2F4 | 
[V:2] B4A4 | 
[V:3] G,4F,4 | 
[V:1] =E2D2D4- | 
[V:2] G4F4 | 
[V:3] C,4D,4 | 
[V:1] D4^C4 | 
[V:2] =E8 | 
[V:3] A,,8 | 
[V:1] D8 | 
[V:2] D8- | 
[V:3] z4D,4 | 
[V:1] z4D4 | 
[V:2] D8 | 
[V:3] F,4F,4 | 
[V:1] F4F4 | 
[V:2] z4D4 | 
[V:3] A,6G,2 | 
[V:1] A4A4 | 
[V:2] F4F4 | 
[V:3] F,3E,D,2C,B,, | 
[V:1] c6B2 | 
[V:2] A4A4 | 
[V:3] A,,2F,,4F,,2 | 
[V:1] A6G2 | 
[V:2] c6B2 | 
[V:3] F,,4C,2G,,2 | 
[V:1] F4B4 | 
[V:2] A4G4 | 
[V:3] D,4z2G,,2 | 
[V:1] A2G2G4- | 
[V:2] F4G4 | 
[V:3] D,4z2G,,2 | 
[V:1] G4F4 | 
[V:2] A8 | 
[V:3] D,8 | 
[V:1] B6AG | 
[V:2] G8 | 
[V:3] G,,2G,4F,E, | 
[V:1] F4G2F2 | 
[V:2] d4=e4 | 
[V:3] D,4z4 | 
[V:1] D4F4- | 
[V:2] f8 | 
[V:3] B,,8 | 
[V:1] F4B4 | 
[V:2] d8 | 
[V:3] B,8 | 
[V:1] A2G2G4- | 
[V:2] c4B4 | 
[V:3] F,4G,4 | 
[V:1] G4^F4 | 
[V:2] A8 | 
[V:3] D,8 | 
[V:1] G8 |]  
[V:2] G8 |]  
[V:3] G,,8 |]  



